!!!!SEGMENT: pl-wnifc--13846--123_anonim--piesni-polskie-i-ruskie-ludu-galicyjskiego-123-dziwna-zazdrosc-starych-ludzi.krn
!!!kernsource:
!!!cenid: 18xx:3345
!!!COM: Anonim
!!!COM-rismID: pe30004985
!!!CDT:
!!!CNT:
!!!GTL: Pieśni polskie i ruskie ludu galicyjskiego
!!!OTL: 123. Dziwna zazdrość starych ludzi
!!!PDT: 1833
!!!AGN:
!!!SMS-siglum: PL-Wnifc
!!!SMS-shelfmark: 13846
!!!SMS-shelfwork: 123 G
!!!NIFC-rismSourceID: 1001039629
!!!NIFC-islandoraID:
!!!URL-pdf-islandora:
!!!URL-scan:
!!!ONB-nifc:
!!!AIN: 1 piano 1 vox
!!!key: d
!!!OMD: Moderato
**kern	**kern	**dynam	**kern	**text
*part2	*part2	*part2	*part1	*part1
*staff3	*staff2	*	*staff1	*staff1
*I"FORTEPIAN.	*I"FORTEPIAN.	*	*I"GŁOS.	*
*Ipiano	*Ipiano	*	*Ivox	*
*ICklav	*ICklav	*	*ICvox	*
*IGacmp	*IGacmp	*	*IGsolo	*
*>[A,B,B]	*>[A,B,B]	*>[A,B,B]	*>[A,B,B]	*>[A,B,B]
*>A	*>A	*>A	*>A	*>A
*clefF4	*clefG2	*	*clefG2	*
*k[b-]	*k[b-]	*	*k[b-]	*
*d:	*d:	*	*d:	*
*M3/8	*M3/8	*	*M3/8	*
=1-	=1-	=1-	=1-	=1-
!	!	!	!LO:TX:a:t=E 201.	!
8D/ 8DD/	16.ff\LL 16.dd\	.	16.ff\	Dziw-
.	32gg\JJk 32ee\	.	32gg\	-na
8f\L 8d\ 8A\	8aa\L 8ff\	.	8aa\	zaz-
8f\J 8d\ 8A\	8aa\J 8ff\	.	8aa\	-drość
=2	=2	=2	=2	=2
8c#X\L 8A\	(16aa\LL 16ff\	sf	(16aa\LL	sta-
.	16gg\JJ 16ee\)	.	16gg\JJ)	.
8c#\ 8A\	8.gg\L 8.ee\	.	(8.gg\L	-rych
8d\J 8A\	.	.	.	.
.	16ff\Jk 16dd\	.	16ff\Jk)	.
=3	=3	=3	=3	=3
*^	*	*	*	*
8AA/	8ryy	(16ff\LL 16dd\	.	(16ff\LL	-lu-
.	.	16ee\JJ 16cc#X\)	.	16ee\JJ)	.
!	!	!	!LO:DY:rj	!	!
4c#X/	4A\	4ee\ 4cc#X\ 4a\	f	4ee\	-dzi,
*v	*v	*	*	*	*
!!LO:LB:g=original
=4	=4	=4	=4	=4
8D\L	16.ff\LL 16.dd\ 16.a\	.	16.ff\	wiek
.	32gg\JJk 32ee\	.	32gg\	zgrzy-
8f\ 8A\	8aa\L 8ff\ 8a\	.	8aa\	-bia-
8f\J 8A\	8aa\J 8ff\ 8a\	.	8aa\	-ły
=5	=5	=5	=5	=5
8c#X\L 8A\	(16aa\LL 16ff^<\	.	(16aa\LL	to
.	16gg\JJ 16ee\)	.	16gg\JJ)	.
8c#\ 8A\	(8.gg\L 8.ee\	.	(8.gg\L	ich
8e\J 8c#\ 8A\	.	.	.	.
.	16ff\Jk 16dd\)	.	16ff\Jk)	.
=6	=6	=6	=6	=6
*^	*	*	*	*
8AA/	8ryy	16ff\LL 16dd\	.	(16ff\LL	nu-
.	.	16ee\JJ 16cc#X\	.	16ee\JJ)	.
4c#X/	4A\	4ee\ 4cc#\ 4a\	.	4ee\	-dzi,
*v	*v	*	*	*	*
!!LO:PB:g=original
=7!|:	=7!|:	=7!|:	=7!|:	=7!|:
*>B	*>B	*>B	*>B	*>B
*tremolo	*	*	*	*
(16F\ 16D\LL	16ff\LL|	.	16ff\	sa-
16A\	16ff\JJ|	.	16ff\	-mi
.	(<8qgg/	.	8qgg/	.
16F\ 16D\	8ff\)	.	8ff\	o
16A\	.	.	.	.
16F\ 16D\	16ee\LL|	.	(16ee\LL	mi-
16A\JJ)	16dd\JJ|	.	16dd\JJ)	.
=8	=8	=8	=8	=8
(16G\ 16E\LL	(16dd\LL	sf	(16dd\LL	-łość
16A\	16cc#X\JJ)	.	16cc#X\JJ)	.
16G\ 16E\	8.cc#\^L	.	(8.cc#\L	nie-
16A\	.	.	.	.
16G\ 16E\	.	.	.	.
16A\JJ)	16a\Jk|	.	16a\Jk)	.
=9	=9	=9	=9	=9
.	8qa/	.	.	.
(16F\ 16D\LL	16aa\	.	8aa\	-dba-
16A\	16r	.	.	.
16F\ 16D\	4aa\^<	.	4aa\	-ją,
16A\	.	.	.	.
16F\ 16D\	.	.	.	.
16A\JJ)	.	.	.	.
!!LO:LB:g=original
=10	=10	=10	=10	=10
(16F\ 16D\LL	16ff\LL|	.	16ff\	mło-
16A\	16ff\JJ|	.	16ff\	-dym
.	(<8qgg/	.	(<8qgg/	.
16F\ 16D\	8ff\)	.	8ff\)	ko-
16A\	.	.	.	.
16F\ 16D\	16ee\LL|	.	(16ee\LL	-chać
16A\JJ)	16dd\JJ|	.	16dd\JJ)	.
=11	=11	=11	=11	=11
(16G\ 16E\LL	(16dd\LL	sf	(16dd\LL	za-
16A\	16cc#X\JJ)	.	16cc#X\JJ)	.
16G\ 16E\	8.cc#\L	.	(8.cc#\L	-bra-
16A\	.	.	.	.
16G\ 16E\	.	.	.	.
16A\JJ)	16a\Jk	.	16a\Jk)	.
=12	=12	=12	=12	=12
.	8qa/	.	.	.
(16F\ 16D\LL	8dd\	.	8dd\	-nia-
16A\	.	.	.	.
16F\ 16D\	4dd\^<	.	4dd\	-ją
!LO:TX:t=P:problem=brak znaku repetycji	!LO:TX:t=P:problem=brak znaku repetycji	!	!LO:TX:t=P:problem=brak znaku repetycji	!
16A\	.	.	.	.
16F\ 16D\	.	.	.	.
16A\JJ)	.	.	.	.
*Xtremolo	*	*	*	*
==	==	==	==	==
*-	*-	*-	*-	*-
!!!system-decoration: s1{(s2,s3)}
!!!RDF**kern: < = below
!!!RDF**kern: | = vertical stroke
!!!ENC: Emilia Ziętek
!!!ENC: Marta Lawrence
!!!END: 2021-11-12
